!!! OTL: Berkowitz580
!!! Chapter: 1
!!! Section: V
!!! Page: 147
!!! Mode: 
!!! Encoder: CD
**kern
*staff1
=1-
*clefG2
*k[]
*C:
*M4/4
4a/
4cc#\
2ee\
=2
4cc\
4ee\
2gg#\
=3
4.aa\
8ff#\
4dd#\
4ff#\
=4
4.aa\
8ff\
4dd-\
4ff\
=5
4.aa\
8ee\
4cc#\
4ee\
=6
!!linebreak:original
4ff\
4aa\
2ccc#\
=7
4.bb\
8gg\
4ee\
4ee\
=8
4.bb\
8gg\
4ee-\
4ee-\
=9
4.bb\
8ff#\
4dd#\
4gg\
=10
4ff#\
4dd\
2b\
==
*-
